X:1
T:There Is Sound of Rejoicing
T:There Is Sound of Rejoicing
T:Edward Husband
T:Gerard Moultrie, 1873
T:Public Domain Courtesy of the Cyber Hymnal™
T:Public Domain Courtesy of the Cyber Hymnal™
C:Edward Husband
Z:Public Domain
Z:Courtesy of the Cyber Hymnal™
%%score ( 1 2 ) ( 3 4 ) 5
L:1/8
M:4/4
K:F
V:1 treble 
V:2 treble 
V:3 bass 
V:4 bass 
V:5 bass 
V:1
"^Maestoso" [FA]3 [FA] | [Gc]4 [FB]3 [FB] [FA]4 F3 F | c4 [DB]3 [EB] [FA]6 | %3
w: 1.~There is|sound of re- joic- ing a-|round the great throne,|
w: 2.~And the|soul may ap- proach to her|God with- out dread,|
w: 3.~But the|hour draw- eth nigh when the|an- gel shall stand|
w: 4.~And the|thun- ders shall roll, and the|dead, great and small,|
 [FA]2 [CA]4 [DA]3 [^DA] A4 [=D=B]3 [Ec] | [CA]12 [FA]3 [FA] | [Ec]4 [FB]3 [FB] [FA]4 F3 F | %6
w: A whis- per of my- ri- ad|wings; For the|foe that ac- cus- eth us|
w: In mo- ment of praise of of|pray’r; “Fear ye|not,” the bright an- gels of|
w: With foot on the si- le- nt|shore; By the|Lord he shall swear, as he|
w: At the throne of the Judge shall|stand; And the|song shall re sound thro’ the|
 A6 (z2 G2) F4 [Fe]3 [Fd] | [Fc]4 (E3 F) [DB]4 (A3 G) | F12 [FA]4 | %9
w: lies * cast down, And|the choir * of an- *|gels sings—|
w: God * have said, “Glad|tid- ings * of joy *|we bear.”|
w: lifts * his hand, And|that time * shall be *|no more.|
w: heav’n- * ly hall, Of|the saints * at God’s *|right hand.|
 [_Ec]4 [DB]3 [DB] [DF]2 [DF]4 [DG]2 | [_Ec]3 [Ec] [DB]4 F8 | [FG]4 [Fe]3 [Fd] c3 A (F3 C) | %12
w: |||
w: Sal- va- tion, and hon- or,|and ma- jes- ty|be, Lord of all pow- er *|
w: |||
w: |||
 !fermata![CD]4 E3 (z E) [A,F]4 |] %13
w: |
w: and might * un-|
w: |
w: |
V:2
 x4 | x12 F3 F | (F2 C2) x10 | x10 (E2 C2) x4 | x16 | x12 F3 F | E4 (E4 F4) x6 | x4 C4 x E4 x3 | %8
 F12 x4 | x16 | x8 F8 | x8 F4 C4 | x4 C2 B,2 x5 |] %13
V:3
 [F,C]3 [F,F] | [F,E]4 [F,D]3 [F,_D] [F,C]4 [F,A,]3 [F,A,] | [C,A,]4 [C,G,]3 [C,C] [F,C]6 | %3
 [F,C]2 [F,A,]4 [F,A,]3 [F,=B,] C2 A,2 [E,^G,]3 [E,G,] | [A,,A,]12 [F,C]3 [F,C] | %5
 [C,C]4 [C,D]3 [C,D] [C,C]4 [C,A,]3 [C,A,] | [C,C]4 [^C,B,]4 [D,A,]4 [G,=B,]3 [G,B,] x2 | %7
 [A,C]4 C4 [C,-G,B,]4 (C3 B,) | [F,A,]12 [C,C]4 | %9
 [A,,F,]4 [B,,F,]3 [B,,F,] [D,F,]2 [D,F,]4 [B,,F,]2 | [A,,F,]3 [A,,F,] [B,,F,]4 [D,B,]8 | %11
 [G,=B,]4 [G,B,]3 [G,B,] [A,C]4 [C,A,]4 | !fermata![C,B,]4 [C,A,]2 [C,G,]2 [F,,F,]4 x |] %13
V:4
 x4 | x16 | x14 | x10 E,4 x4 | x16 | x16 | x18 | x4 B,3 A, x C,4 x3 | x16 | x16 | x16 | x16 | %12
 x13 |] %13
V:5
"^Organ" z4 | z8 z8 | z8 z6 | z8 z8 z2 | z12 z4 | z8 z8 | z8 z4 G,,4 x2 | C,8 C,8 | F,,12 z4 | %9
 z8 z8 | z8 z8 | G,,8 C,8 | x13 |] %13

